**kern	**kern	**dynam
*part1	*part1	*part1
*staff2	*staff1	*
*I"Piano	*	*
*clefF4	*clefG2	*
*k[b-e-a-]	*k[b-e-a-]	*
=1	=1	=1
4GGn 4Gn	4f 4g 4bn 4dd 4gg	sf
4r	4r	.
=	=	=
2r	2r	.
=	=	=
8CC 8GG 8C	16cccLL	fff
.	16bb-	.
8r	16aa-	.
.	16ggJJ	.
8C^^L 8F 8A- 8c	16bb-LL	.
.	16aa-	.
8C^^J 8F 8A- 8c	16gg	.
.	16ffJJ	.
=	=	=
8C^^L 8F 8A- 8d-X	16ggLL	.
.	16ff	.
8C^^J 8F 8A- 8d-	16ee-	.
.	16dd-XJJ	.
8C^^L 8F 8A- 8d-	16ee-LL	.
.	16dd-	.
8C^^J 8F 8A- 8d-	16cc	.
.	16b-JJ	.
=	=	=
4C^^ 4E- 4G 4c	4cc	.
(4GGG 4GG	(4G	.
=	=	=
4G) 4Bn 4d	4bn) 4dd 4gg	.
(4CC	(4C<	.
=	=	=
4C'~) 4E- 4G 4c	4cc'~) 4ee- 4gg 4ccc	.
4r	4r	.
==	==	==
*-	*-	*-
!!!system-decoration: {(s1,s2)}
!!!RDF**kern: < = below
